X: 31229
T: Paddy Fahey's
R: reel
M: 4/4
K: Dmajor
DEFG AGFD|E/F/GAB =c2 Bc|Ad d2 Adad|egee dBAE|
D2 E/F/G AGFD|EGAB =c2 Bc|Ad d2 Adfd|=cAAF GE E2||
fgag fdAG|F2 DF GE C2|DFAd f2 ed|cdeg a2 ag|
f/g/ag fdAG|F2 DF GE C2|D2 FAe g2 ee|cBAF GE E2|
DEFG AGFD|E/F/GAB =c2 Bc|Ad d2 Aead|eafe dBAF|
D2 E/F/G A/G/FD|EGAB =c2 Bc|Ad d2 Adfd|=cAAF GE D2||
fgag fdAG|F2 DF GE C2|DFAd f2 ed|cdfg a2 ag|
f/g/aag fdAG|F2 DF GE C2|DFAd f2 ed|cAGE GD D2||

